!!!COM: Bach, Johann Sebastian
!!!OPR: Joh. Seb. Bachs vierstimmige Choralgesänge
!!!XEN: Four-part Chorales
!!!OTL: 87. Herzlich lieb hab' ich dich, o Herr
!!!SCT: BWV 340
!!!SCA: Thematisch-systematisches Verzeichnis der musikalischen Werke Johann Sebastian Bach: Bach-Werke-Verzeichnis (Schmieder)
!!!YOR: Bach Gesellschaft Edition xxxix
!!!ENC: Steven Rasmussen
!!!CDT: 1685/3//-1750/7/28/
!!!OCY: Deutschland
!!!YEC: Copyright (c) 1994, 2000 Center for Computer Assisted Research in the Humanities
!!!YEM: Rights to all derivative editions reserved
!!!YEN: United States of America
**kern	**kern	**kern	**kern	**silbe
*I:[BASSO]	*I:[TENORE]	*I:[ALTO]	*I:[SOPRANO]	*I:[SOPRANO]
*>[A,A,B]	*>[A,A,B]	*>[A,A,B]	*>[A,A,B]	*
*>A	*>A	*>A	*>A	*
*clefF4	*clefGv2	*clefG2	*clefG2	*
*k[]	*k[]	*k[]	*k[]	*
*C:	*C:	*C:	*C:	*
*M4/4	*M4/4	*M4/4	*M4/4	*
4C	4e	4g	4cc	Herz-Die
=1	=1	=1	=1	=1
4G	4d	8gL	4b	-lichganz'
.	.	8fJ	.	.
4A	8dL	4e	4a	liebWelt
.	8cJ	.	.	.
8EL	4B	4e	8gL	hab'nicht
8DJ	.	.	8fJ	.
4C	8cL	8eL	4e	icher-
.	8BJ	8dJ	.	.
=2	=2	=2	=2	=2
8FL	8AL	4c	4a	dich,-freu-
8GJ	8BJ	.	.	.
8AL	4c	4f	4a	o-et
8BJ	.	.	.	.
4c;	4c;	4e;	4g;	Herr,mich,
4A	8cL	8eL	4cc	ichnach
.	8dJ	8fJ	.	.
=3	=3	=3	=3	=3
4E	8eL	4g	4b	bitt'Himm'l
.	8dJ	.	.	.
4F	4c	8fL	4a	wollstund
.	.	8eJ	.	.
4BB	4d	4d	8gL	seinErd'
.	.	.	8fJ	.
8CL	4G	8cL	4e	vonnicht
8BBJ	.	8dJ	.	.
=4	=4	=4	=4	=4
8AAL	8cL	8eL	4a	mirfra-
8BBJ	8BJ	8d#J	.	.
8C#L	8AL	8eL	4a	nicht-ge
8D#J	8cJ	8f#J	.	.
4E;	4B;	(8f#L	4g;	fernich,
.	.	8e;J)	.	.
4Cn	8cL	4e	4g	mitwenn
.	8BJ	.	.	.
=5	=5	=5	=5	=5
4F	4A	8dL	4a	dei-ich
.	.	8cJ	.	.
8EL	4d	4f	4b	-nernur,
8DJ	.	.	.	.
4.A	8cL	4e	8ccL	HuldHerr,
.	8BJ	.	8ddJ	.
.	4c	4a	4ee	unddich
8G	.	.	.	.
=6	=6	=6	=6	=6
8FL	4c	4a	2dd	Gna-ha-
8DJ	.	.	.	.
4G	4B	8gL	.	.
.	.	8fJ	.	.
4C;	4G;	4e;	4cc;	-de.-be.
=:|!	=:|!	=:|!	=:|!	=:|!
*>B	*>B	*>B	*>B	*
8cL	4e	4g	4cc	Und
8BJ	.	.	.	.
=7	=7	=7	=7	=7
4.A	8eL	4a	4cc	wenn
.	8cJ	.	.	.
.	8fL	4b	4dd	mir
8G#	8eJ	.	.	.
8AL	4.e	4a	4cc	gleich
8BJ	.	.	.	.
8cL	.	4e	8aL	mein
8BJ	8d	.	8bJ	.
=8	=8	=8	=8	=8
8AL	8cL	4e	4.cc	Herz
8GJ	8BJ	.	.	.
8F#L	4A	4d	.	.
8DJ	.	.	8dd	zer-
4G;	4G;	4d;	4b;	-bricht,
8GL	4d	4g	4b	so
8FnJ	.	.	.	.
=9	=9	=9	=9	=9
8EL	4e	4g	4cc	bist
8DJ	.	.	.	.
8CL	4f	4g	4dd	doch
8BBJ	.	.	.	.
4C	4e	4g	8ccL	du
.	.	.	8bJ	.
4D	8AL	4f	8aL	mein'
.	8G#J	.	8bJ	.
=10	=10	=10	=10	=10
8AAL	8AL	4.e	4.cc	Zu-
8BBJ	8EJ	.	.	.
8CL	4A	.	.	.
8AAJ	.	8f#	8dd	-ver-
4E;	4B;	4g#;	4b;	-sicht,
4C#	4A	8aL	4ee	mein
.	.	8gnJ	.	.
=11	=11	=11	=11	=11
4D	8dL	4f	8ffL	Heil
.	8cJ	.	8eeJ	.
8GL	4B	4g	4dd	und
8FJ	.	.	.	.
4E	4B	8gL	8eeL	mei-
.	.	8fJ	8ddJ	.
8AL	4c	4e	4cc	-nes
8GJ	.	.	.	.
=12	=12	=12	=12	=12
8FL	4d	4a	4cc	Her-
8DJ	.	.	.	.
4G	8eL	4g	4b	-zens
.	8fJ	.	.	.
4C;	4e;	4g;	4cc;	Trost,
4G	4d	4g	4b	der
=13	=13	=13	=13	=13
8GL	4d	4a	4cc	mich
8F#J	.	.	.	.
8GL	8dL	8aL	4b	durch
8EJ	8eJ	8gJ	.	.
8CL	8eL	8gL	8aL	sein
8DJ	8dJ	8f#J	8bJ	.
8EL	8BL	8f#L	4g	Blut
8CJ	8cJ	8eJ	.	.
=14	=14	=14	=14	=14
4AA	4c	4e	8gL	hat
.	.	.	8aJ	.
4D	8AL	4d	4f#	er-
.	16BL	.	.	.
.	16cJJ	.	.	.
4GG;	4B;	4d;	4g;	-lÃ¶st,
4C	8GL	4c	4ee	Herr
.	8AJ	.	.	.
=15	=15	=15	=15	=15
8GL	4B	8dL	4dd	Je-
8G#J	.	8eJ	.	.
4A	8AL	8eL	4cc	-su
.	8F#J	8d#J	.	.
4E;	4G#;	4e;	4b;	Christ!
4AA	8cL	8eL	4ee	Herr
.	8BJ	8dnJ	.	.
=16	=16	=16	=16	=16
4A	8AL	8cL	8ffL	Je-
.	8cJ	8eJ	8eeJ	.
8BL	8dL	8g#L	4dd	-su
8AJ	8fJ	8aJ	.	.
4G#	4B	4b	8eeL	Christ,
.	.	.	8ddJ	.
8AL	4c	4e	8ccL	mein
8GnJ	.	.	8bJ	.
=17	=17	=17	=17	=17
4F#	8cL	8eL	8aL	Gott
.	8AJ	8dJ	8ddJ	.
8G#L	8BL	4e	4b	und
8EJ	8G#J	.	.	.
4A;	4A;	4e;	4cc;	Herr!
4E	4Gn	8ccL	4cc	in
.	.	8b-J	.	.
=18	=18	=18	=18	=18
8FL	8cL	8aL	4cc	Schan-
8GJ	8B-J	8gJ	.	.
4A	4A	8fL	4cc	-den
.	.	8eJ	.	.
4BB	8AL	4d	4dd	lass
.	8GJ	.	.	.
8EL	8GL	8eL	4cc	mich
8CJ	8eJ	8gJ	.	.
=19	=19	=19	=19	=19
4G	8dL	4.g	4cc	nim-
.	8cJ	.	.	.
4GG	4d	.	4b	-mer-
.	.	8g	.	.
4C;	4e;	4g;	4cc;	-mehr.
==|!	==|!	==|!	==|!	==|!
*-	*-	*-	*-	*-
!!!RWG: Key is interpreted using the Humdrum key tool.
!!!URL-pdf: https://s9.imslp.org/files/imglnks/usimg/6/6b/IMSLP24489-PMLP09471-CCARH_Bach_Chorales.pdf#page=61 Musedata edition
!!!URL-pdf: https://s9.imslp.org/files/imglnks/usimg/7/7a/IMSLP04155-Bach_-_BGA_253-438.pdf#page=47 	Bach-Gesellschaft Ausgabe, Band 39 (pp.175-276) Leipzig: Breitkopf und Härtel, 1892. Plate B.W. XXXIX.
!!!END: 1994/06/10
!!!EMD: Converted from MuseData to Humdrum Dec 19, 2000, by Andreas Kornstaedt using muse2kern.
!!!EED: Craig Stuart Sapp
!!!EEV: 2024/03/31
!!!filter-keyboard: satb2gs
